X:1
T:Title
%%score { ( 1 4 ) | ( 2 3 ) }
L:1/8
Q:1/4=100
M:6/8
K:F
V:1 treble nm="Grand Piano"
V:4 treble 
V:2 bass 
V:3 bass 
V:1
 c=Bc d2 A | c3 [EB]3 | [EG][FA][GB] [Ac]2 [EG] | A6 | A_A=A B2 A | [DG]3 D3 | %6
w: G.~Froelich * * * *||||||
 EF[G,EG] [CFA]2 [B,EG] | F6 | FE[A,DF] [CEG]2 [CEG] | [^CEA]3 [A,CE]3 | [DF][^CE][DF] [EG]2 [EG] | %11
w: |||||
 A6 | cdc [EB]2 [EG] | [DF]3 [Fd]3 | def [FA]2 [EG] | F6 | c3 z3 | d6 | B3 z3 | c6 | %20
w: |||||||||
 cdc [EB]2 [EG] | [DF]3 [Fd]3 | .d3 z3 | [A,F]6 |] %24
w: ||||
V:2
 .[F,F]3 z3 | [G,CE]3 [C,C]3 | [C,C]2 [C,C] [C,C]2 [C,C] | [F,CF]6 | .C3 z3 | [B,,B,]3 [B,,F,]3 | %6
 .B,3 z3 | [F,A,]6 | .D3 z3 | A,,3 A,,3 | [D,A,]2 [D,A,] [C,C]2 [C,C] | [F,CF]6 | .[F,F]3 z3 | %13
 [D,A,]3 [B,,B,]3 | .B,3 z3 | [F,A,]6 | [F,A,F][F,A,][F,A,] [F,A,F]2 [F,A,F] | %17
 [B,,B,][B,,B,][B,,B,] .[B,,B,]3 | [C,G,]C,C, z AC, | [F,A,F][F,A,][F,A,] .[F,A,]3 | %20
 [F,F]-[F,B,F][F,A,F] [C,C]2 [C,B,] | [D,A,]3 [B,,B,]3 | .B,3 z3 | F,6 |] %24
V:3
 A,_A,[F,=A,F] [F,B,F]2 [F,CF] | x6 | x6 | x6 | [F,F]-[F,=B,F][F,CF] [F,DF]2 [F,CF] | x6 | %6
 [C,C]-[C,A,C]C, C,2 C, | x6 | [D,A,]-[D,A,^C]D, C,2 B,, | x6 | x6 | x6 | %12
 A,B,[F,A,F] [C,C]2 [C,B,] | x6 | B,,-[B,,C][B,,DF] [C,C]2 [C,B,] | x6 | x6 | x6 | z3 .C,3 | x6 | %20
 .A,3 z3 | x6 | B,,-[B,,C]B,, C,2 C, | x6 |] %24
V:4
 x6 | x6 | x6 | x6 | x6 | x6 | x6 | x6 | x6 | x6 | x6 | x6 | x6 | x6 | .F3 z3 | x6 | z FF c=Bc | %17
 FFF .F3 | E[G,E][CE] .[CEB]2 [CEB] | z FF .F3 | x6 | x6 | F-[Fe][DFf] [CFA]2 [B,EG] | x6 |] %24

